app/images/icon-nav-settings.svg

<svg height="42" viewBox="0 0 36 42" width="36" xmlns="http://www.w3.org/2000/svg"><g style="stroke:#949494;stroke-width:1.190476;fill:none;fill-rule:evenodd;stroke-linecap:round;stroke-linejoin:round" transform="translate(-11)"><path d="m27 23.1904762c0-1.314881 1.0660714-2.3809524 2.3809524-2.3809524 1.3148809 0 2.3809524 1.0660714 2.3809524 2.3809524 0 1.3148809-1.0660715 2.3809524-2.3809524 2.3809524-1.314881 0-2.3809524-1.0660715-2.3809524-2.3809524z"/><path d="m38.3095238 24.9761905v-3.5714286h-2.6339286c-.1398809-.4940476-.3333333-.9648809-.5791666-1.4041667l1.8607143-1.8607142-2.5255953-2.5255953-1.8607143 1.8607143c-.4392857-.2458333-.910119-.4392857-1.4041666-.5791667v-2.6339285h-3.5714286v2.6339285c-.4940476.139881-.964881.3333334-1.4041667.5791667l-1.8607143-1.8607143-2.5255952 2.5255953 1.8607143 1.8607142c-.2458333.4392858-.4392857.9101191-.5791667 1.4041667h-2.6339285v3.5714286h2.6339285c.139881.4940476.3333334.9648809.5791667 1.4041666l-1.8607143 1.8607143 2.5255952 2.5255953 1.8607143-1.8607143c.4392857.2458333.9101191.4392857 1.4041667.5791666v2.6339286h3.5714286v-2.6339286c.4940476-.1398809.9648809-.3333333 1.4041666-.5791666l1.8607143 1.8607143 2.5255953-2.5255953-1.8607143-1.8607143c.2458333-.4392857.4392857-.910119.5791666-1.4041666z"/></g></svg>

<?xml version="1.0" encoding="UTF-8"?>
<svg width="36px" height="42px" viewBox="0 0 36 42" version="1.1" xmlns="http://www.w3.org/2000/svg" xmlns:xlink="http://www.w3.org/1999/xlink">
    <!-- Generator: Sketch 47.1 (45422) - http://www.bohemiancoding.com/sketch -->
    <title>icon-nav-settings</title>
    <desc>Created with Sketch.</desc>
    <defs></defs>
    <g id="Symbols" stroke="none" stroke-width="1" fill="none" fill-rule="evenodd" stroke-linecap="round" stroke-linejoin="round">
        <g id="browser-macOS-40a-profile-verified-d18" transform="translate(-348.000000, -46.000000)" stroke="#949494" stroke-width="1.19047619">
            <g id="navbar-w352px-top0" transform="translate(58.000000, 34.000000)">
                <g id="settings" transform="translate(279.000000, 12.000000)">
                    <path d="M27,23.1904762 C27,21.8755952 28.0660714,20.8095238 29.3809524,20.8095238 C30.6958333,20.8095238 31.7619048,21.8755952 31.7619048,23.1904762 C31.7619048,24.5053571 30.6958333,25.5714286 29.3809524,25.5714286 C28.0660714,25.5714286 27,24.5053571 27,23.1904762 L27,23.1904762 Z" id="Stroke-5617"></path>
                    <path d="M38.3095238,24.9761905 L38.3095238,21.4047619 L35.6755952,21.4047619 C35.5357143,20.9107143 35.3422619,20.439881 35.0964286,20.0005952 L36.9571429,18.139881 L34.4315476,15.6142857 L32.5708333,17.475 C32.1315476,17.2291667 31.6607143,17.0357143 31.1666667,16.8958333 L31.1666667,14.2619048 L27.5952381,14.2619048 L27.5952381,16.8958333 C27.1011905,17.0357143 26.6303571,17.2291667 26.1910714,17.475 L24.3303571,15.6142857 L21.8047619,18.139881 L23.6654762,20.0005952 C23.4196429,20.439881 23.2261905,20.9107143 23.0863095,21.4047619 L20.452381,21.4047619 L20.452381,24.9761905 L23.0863095,24.9761905 C23.2261905,25.4702381 23.4196429,25.9410714 23.6654762,26.3803571 L21.8047619,28.2410714 L24.3303571,30.7666667 L26.1910714,28.9059524 C26.6303571,29.1517857 27.1011905,29.3452381 27.5952381,29.485119 L27.5952381,32.1190476 L31.1666667,32.1190476 L31.1666667,29.485119 C31.6607143,29.3452381 32.1315476,29.1517857 32.5708333,28.9059524 L34.4315476,30.7666667 L36.9571429,28.2410714 L35.0964286,26.3803571 C35.3422619,25.9410714 35.5357143,25.4702381 35.6755952,24.9761905 L38.3095238,24.9761905 L38.3095238,24.9761905 Z" id="Stroke-5622"></path>
                </g>
            </g>
        </g>
    </g>
</svg>
